icons/number-16.svg

<svg width="16" height="16" viewBox="0 0 16 16" fill="none" xmlns="http://www.w3.org/2000/svg">
<g clip-path="url(#clip0)">
<path fill-rule="evenodd" clip-rule="evenodd" d="M5.60388 0.0887455C5.84775 0.21926 5.99999 0.473405 5.99999 0.750001L5.99999 5.51921H6.71102C7.12524 5.51921 7.46102 5.855 7.46102 6.26921C7.46102 6.68342 7.12524 7.01921 6.71102 7.01921H3.75858C3.34436 7.01921 3.00858 6.68342 3.00858 6.26921C3.00858 5.855 3.34436 5.51921 3.75858 5.51921H4.49999L4.49999 2.15139L4.16601 2.37404C3.82136 2.6038 3.35571 2.51067 3.12595 2.16603C2.89618 1.82138 2.98931 1.35573 3.33396 1.12596L4.83397 0.125963C5.06411 -0.0274649 5.36002 -0.0417689 5.60388 0.0887455ZM8.99999 4.74996C8.99999 4.33575 9.33578 3.99996 9.74999 3.99996H13.75C14.0533 3.99996 14.3268 4.1827 14.4429 4.46295C14.559 4.74321 14.4948 5.0658 14.2803 5.28029L12.3886 7.17203C12.701 7.24801 12.9935 7.35229 13.2562 7.49091C13.9976 7.88203 14.5 8.55444 14.5 9.49604C14.5 10.1488 14.2687 10.7036 13.8711 11.1234C13.485 11.5312 12.9775 11.7759 12.463 11.8997C11.4521 12.1431 10.238 11.9628 9.33878 11.3733C8.99237 11.1462 8.89566 10.6812 9.12277 10.3348C9.34988 9.98843 9.8148 9.89172 10.1612 10.1188C10.6954 10.469 11.4812 10.5932 12.112 10.4414C12.4184 10.3676 12.6421 10.2398 12.782 10.092C12.9105 9.95637 13 9.77277 13 9.49604C13 9.18764 12.8774 8.98702 12.5563 8.8176C12.1829 8.62062 11.576 8.49996 10.75 8.49996C10.4466 8.49996 10.1732 8.31723 10.0571 8.03698C9.94099 7.75672 10.0052 7.43413 10.2197 7.21963L11.9393 5.49996H9.74999C9.33578 5.49996 8.99999 5.16418 8.99999 4.74996ZM5.41281 10.5129C5.06214 10.4621 4.64341 10.6255 4.43026 11.0846C4.25584 11.4603 3.80987 11.6235 3.43418 11.449C3.05848 11.2746 2.89532 10.8287 3.06975 10.453C3.57769 9.35891 4.65896 8.88793 5.62802 9.02842C6.62717 9.17327 7.50001 9.97317 7.50001 11.2499C7.50001 12.6826 6.41212 13.442 5.71067 13.9315C5.40205 14.1469 5.13893 14.3281 4.93783 14.504L7.00001 14.504C7.41422 14.504 7.75001 14.8398 7.75001 15.254C7.75001 15.6682 7.41422 16.004 7.00001 16.004L3.75001 16.004C3.33579 16.004 3.00001 15.6682 3.00001 15.254C3.00001 14.5647 3.29914 14.0425 3.67049 13.6446C4.01795 13.2724 4.47003 12.9684 4.82056 12.7236C5.62069 12.1647 6.00001 11.8199 6.00001 11.2499C6.00001 10.7766 5.73339 10.5594 5.41281 10.5129Z" fill="#24292E"/>
</g>
<defs>
<clipPath id="clip0">
<rect width="16" height="16" fill="white"/>
</clipPath>
</defs>
</svg>

<svg xmlns="http://www.w3.org/2000/svg" width="16" height="16" viewBox="0 0 16 16"><path fill-rule="evenodd" d="M5.604.089A.75.75 0 016 .75v4.77h.711a.75.75 0 110 1.5H3.759a.75.75 0 110-1.5H4.5V2.15l-.334.223a.75.75 0 01-.832-1.248l1.5-1a.75.75 0 01.77-.037zM9 4.75A.75.75 0 019.75 4h4a.75.75 0 01.53 1.28l-1.89 1.892c.312.076.604.18.867.319.742.391 1.244 1.063 1.244 2.005 0 .653-.231 1.208-.629 1.627-.386.408-.894.653-1.408.777-1.01.243-2.225.063-3.124-.527a.75.75 0 01.822-1.254c.534.35 1.32.474 1.951.322.306-.073.53-.201.67-.349.129-.136.218-.32.218-.596 0-.308-.123-.509-.444-.678-.373-.197-.98-.318-1.806-.318a.75.75 0 01-.53-1.28l1.72-1.72H9.75A.75.75 0 019 4.75zm-3.587 5.763c-.35-.05-.77.113-.983.572a.75.75 0 11-1.36-.632c.508-1.094 1.589-1.565 2.558-1.425 1 .145 1.872.945 1.872 2.222 0 1.433-1.088 2.192-1.79 2.681-.308.216-.571.397-.772.573H7a.75.75 0 010 1.5H3.75a.75.75 0 01-.75-.75c0-.69.3-1.211.67-1.61.348-.372.8-.676 1.15-.92.8-.56 1.18-.904 1.18-1.474 0-.473-.267-.69-.587-.737z"/></svg>
